X:1
T:Title
%%score 1 { ( 2 4 ) | ( 3 5 ) }
L:1/8
M:3/4
K:Eb
V:1 treble nm="Akkordion"
V:2 treble nm="Grand Piano"
V:4 treble 
V:3 treble 
V:5 treble 
V:1
 z2 z[Q:1/4=84] G Bd | c3 B AG | G2 CC DE | F3 G B>A |[M:3/8] G3 | GBd |[M:3/4] c3 B AG | %7
 G2 FF G=A | c3 F GA |[M:3/8] B3 | z3 |[M:3/4] z6 | z6 | z6 |[M:3/8] z3 | z3 |[M:3/4] z6 | z6 | %18
 z6 |[M:9/16] z9/2 |] %20
V:2
 z2 z G Bd | c3 B [=EA][EG] | [EG]2 [CE][=A,C] [A,D][A,E] | [A,F]3 [B,G] [DB]>[FA] |[M:3/8] G3 | %5
 GBd |[M:3/4] c3 B [=EA][EG] | G2 FF G=A | c3 F GA |[M:3/8] B-[EB-][FB] | [GB][GB]>[EG] | %11
[M:3/4] [GB]3 [Ac] [GB]>[EG] | [GB]3 G FE | c3 [Ec] [EB][EG] |[M:3/8] [DF]3 | [AB][GB]>[EG] | %16
[M:3/4] [GB]3 G FE | e3 [Ece] [FBd][EAc] | [B,EB][CEA] [B,EG]2 [A,DF]2 |[M:9/16] [G,E]4- [G,E]/ |] %20
V:3
 z2 z [G,B,E] [B,EG][DEG] | [CEG]3 [B,EG][K:bass] [C,C][C,B,] | %2
 [F,=A,]2 [F,A,][F,,E,] [F,,D,][F,,C,] | [B,,D,]3 [B,,E,] [B,,F,]>[D,B,] |[M:3/8] [E,B,E]3 | %5
 [G,B,E][B,EG][DEG] |[M:3/4] [CEG]3 [B,EG][K:bass] [C,C][C,B,] | %7
 [F,=A,E]2 [F,A,E][F,A,E] [F,B,E][F,CE] | [F,A,E]3 [F,=A,E] [F,B,E][F,CE] |[M:3/8] z G,A, | %10
 [E,E][E,E]>[E,B,] |[M:3/4] [E,E]3 [E,E] [E,E]>[E,B,] | [E,E]3 [E,B,E] [F,B,D][G,B,] | %13
 [A,E]3 [C,A,] [E,G,][E,B,] |[M:3/8] [B,,B,]3 | [D,B,][E,B,]>[E,B,] | %16
[M:3/4] [E,E]3 [E,B,E] [F,B,D][G,B,] | [A,CE]3 A, A,A, | G,F, B,,2 B,,2 |[M:9/16] E,4- E,/ |] %20
V:4
 x6 | x6 | x6 | x6 |[M:3/8] x3 | x3 |[M:3/4] x6 | x6 | x6 |[M:3/8] [B,D] z z | x3 |[M:3/4] x6 | %12
 x6 | x6 |[M:3/8] x3 | x3 |[M:3/4] x6 | x6 | x6 |[M:9/16] x9/2 |] %20
V:5
 x6 | x4[K:bass] x2 | x6 | x6 |[M:3/8] x3 | x3 |[M:3/4] x4[K:bass] x2 | x6 | x6 |[M:3/8] B,,3 | %10
 x3 |[M:3/4] x6 | x6 | x6 |[M:3/8] x3 | x3 |[M:3/4] x6 | x6 | x6 |[M:9/16] x9/2 |] %20

